!!!OTL: 201. Sher
!!!Genre:	Sher
!!!Mode:	Minor
!!!Listening/dance:	dance
!!!One_Mode:	no
**kern
*thru
*I"P1
*clefG2
*k[b-e-]
*g:
*M2/4
*>A
=1
!LO:TX:a:i:t=G-minor
8gL
8ggJ
4dd
=2
(16ddLL
16cc)
(16cc
16b-JJ)
4dd
=3
(16ddLL
16cc)
(16cc
16b-JJ)
(16b-LL
16a)
(16a
16gJJ)
=4
16gLL
16a
16b-
16ccJJ
4dd
=5
8gL
8ggJ
4dd
=6
(16ddLL
16cc)
(16cc
16b-JJ)
4dd
=7
(16ddLL
16cc)
(16cc
16b-JJ)
(16b-LL
16a)
(16a
16gJJ)
*>A1
=8
(16aLL
16b-JJ)
4g
8d
*>A
=1
!LO:TX:a:i:t=G-minor
8gL
8ggJ
4dd
=2
(16ddLL
16cc)
(16cc
16b-JJ)
4dd
=3
(16ddLL
16cc)
(16cc
16b-JJ)
(16b-LL
16a)
(16a
16gJJ)
=4
16gLL
16a
16b-
16ccJJ
4dd
=5
8gL
8ggJ
4dd
=6
(16ddLL
16cc)
(16cc
16b-JJ)
4dd
=7
(16ddLL
16cc)
(16cc
16b-JJ)
(16b-LL
16a)
(16a
16gJJ)
*>A2
=9:|!
(16aLL
16b-JJ
4g)
8f
*>B
!!!Begin-Modulation
*g:
!LO:TX:a:i:t=G-minor
=14
8fL
16b-L
16b-JJ
16b-LL
16b-
16b-
16b-JJ
=15
(16ccLL
16ddJJ)
4b-
8ff
=16
(16ddLL
16cc)
(16cc
16b-JJ)
(16b-LL
16a)
(16a
16gJJ)
=17
2g
*>B
=:|!
!!!Begin-Modulation
*g:
!LO:TX:a:i:t=G-minor
=14
8fL
16b-L
16b-JJ
16b-LL
16b-
16b-
16b-JJ
=15
(16ccLL
16ddJJ)
4b-
8ff
=16
(16ddLL
16cc)
(16cc
16b-JJ)
(16b-LL
16a)
(16a
16gJJ)
=17
2g
=:|!
*-
